X: 4095
T: WEST WINDS
R: Reel.
%R: reel
B: James Kerr "Merry Melodies" v.4 p.12 #95
Z: 2016 John Chambers <jc:trillian.mit.edu>
M: C|
L: 1/8
K: G
|:\
Bdgd B2G2 | cBAG FDdc |\
Bdgd B2G2 | cAdF G/G/G G2 ::\
DCB,C DGBG | cBAG FGEF |\
DCB,C DGBG |
cAdF G/G/G G2 ::\
dgbg dgbg | dfaf dfaf |\
dgbg dgbg | fadf g/g/g g2 ::\
dcBA GFED | cBAG FEDC |
B,CDE FGAB | cAdF G/G/G G2 ::\
dgba gfed | cfag fedc |\
Bdba gfed | cAdf g/g/g gg :|

%%sep 1 1 500
%%sep 1 1 500

